img/icons/button-play.svg

<svg width="102" height="78" viewBox="0 0 102 78" fill="none" xmlns="http://www.w3.org/2000/svg">
<path d="M98.2487 18.3359C98.2487 18.3359 97.3362 11.2447 94.3958 8.10438C90.7457 4.0523 86.5887 3.95098 84.7636 3.74837C71.2785 2.73535 51.0002 2.73535 51.0002 2.73535H50.8988C50.8988 2.73535 30.6205 2.73535 17.1354 3.74837C15.2089 3.95098 11.1533 4.0523 7.5032 8.10438C4.66423 11.2447 3.65031 18.3359 3.65031 18.3359C3.65031 18.3359 2.73779 26.6427 2.73779 34.9494V42.7497C2.73779 51.0564 3.65031 59.3632 3.65031 59.3632C3.65031 59.3632 4.56284 66.4544 7.5032 69.5947C11.1533 73.6468 16.0201 73.5455 18.1493 73.9507C25.8551 74.7611 51.0002 74.9638 51.0002 74.9638C51.0002 74.9638 71.2785 74.9638 84.7636 73.9507C86.6901 73.7481 90.7457 73.6468 94.3958 69.5947C97.2348 66.4544 98.2487 59.3632 98.2487 59.3632C98.2487 59.3632 99.1613 51.0564 99.1613 42.7497V34.9494C99.1613 26.6427 98.2487 18.3359 98.2487 18.3359Z" fill="#63D1BB"/>
<path d="M50.8986 77.8C49.8847 77.8 25.5507 77.4961 17.8449 76.787H17.7435H17.6421C17.338 76.6857 16.9324 76.6857 16.5269 76.5844C13.9921 76.2805 9.22664 75.6727 5.57654 71.5193C2.12922 67.8724 1.11531 60.5786 1.01392 59.7682C1.01392 59.4643 0 51.1575 0 42.8508V35.0505C0 26.6425 0.912534 18.437 0.912534 18.1331V18.0318C1.01393 17.2213 2.12923 10.0289 5.47516 6.28071C9.53082 1.82342 14.0934 1.31693 16.3241 1.11433C16.5268 1.11433 16.7296 1.11432 16.831 1.01302H16.9324C30.4175 0 50.6958 0 50.8986 0H51C51.2028 0 71.4811 0 84.9662 1.01302H85.0676C85.2704 1.01302 85.3718 1.01303 85.5745 1.11433C87.8052 1.31693 92.3678 1.82342 96.4235 6.28071C99.8708 9.92759 100.885 17.2213 100.986 18.0318C100.986 18.3357 102 26.6425 102 35.0505V42.8508C102 51.2588 101.087 59.4643 100.986 59.7682V59.8695C100.885 60.68 99.7694 67.9737 96.4235 71.6206C92.3678 76.0779 87.8052 76.5844 85.5745 76.787C85.3718 76.787 85.169 76.787 85.0676 76.8883H84.9662C71.4811 77.8 51.1014 77.8 50.8986 77.8ZM18.5547 71.3167C26.1591 72.0258 50.1889 72.3297 51 72.3297C51.7098 72.3297 71.3797 72.3297 84.4593 71.3167C84.662 71.3167 84.8648 71.3167 85.0676 71.2154C86.8926 71.0127 89.7316 70.7089 92.3678 67.8724C94.1928 65.8464 95.3082 60.8825 95.5109 59.1604C95.6123 58.6539 96.4235 50.651 96.4235 42.8508V35.0505C96.4235 27.149 95.5109 19.2474 95.4095 18.7409C95.1054 16.3096 93.9901 11.8523 92.2664 10.1302C89.6302 7.19245 86.7913 6.98983 84.9662 6.78722C84.7634 6.78722 84.5606 6.78725 84.3579 6.68594C71.0756 5.67292 51.1014 5.67292 50.8986 5.67292H50.7972C50.5944 5.67292 30.5189 5.67292 17.338 6.68594C17.1352 6.68594 16.9324 6.68592 16.7296 6.78722C14.9046 6.98983 12.0656 7.29375 9.42944 10.1302C7.60439 12.1562 6.48908 17.1201 6.28629 18.8422C6.1849 19.45 5.37376 27.3515 5.37376 35.1518V42.9521C5.37376 50.7523 6.28629 58.7552 6.28629 59.2617C6.59047 61.693 7.70578 66.1503 9.42944 67.8724C11.7614 70.5063 14.8032 70.9114 17.0338 71.2154C17.6422 71.1141 18.0477 71.2154 18.5547 71.3167Z" fill="white"/>
<path d="M38.8338 20.767V56.9318L69.0485 38.9L38.8338 20.767Z" fill="white"/>
</svg>

<svg width="102" height="78" fill="none" xmlns="http://www.w3.org/2000/svg"><path d="M98.249 18.336s-.913-7.091-3.853-10.232c-3.65-4.052-7.807-4.153-9.632-4.356C71.278 2.735 51 2.735 51 2.735h-.1s-20.279 0-33.764 1.013c-1.926.203-5.982.304-9.632 4.356-2.839 3.14-3.853 10.232-3.853 10.232s-.912 8.307-.912 16.613v7.8c0 8.307.912 16.614.912 16.614s.913 7.091 3.853 10.232c3.65 4.052 8.517 3.95 10.646 4.356C25.855 74.76 51 74.964 51 74.964s20.278 0 33.764-1.013c1.926-.203 5.982-.304 9.632-4.356 2.839-3.14 3.853-10.232 3.853-10.232s.912-8.307.912-16.613v-7.8c0-8.307-.912-16.614-.912-16.614z" fill="#63D1BB"/><path d="M50.899 77.8c-1.014 0-25.348-.304-33.054-1.013h-.203c-.304-.101-.71-.101-1.115-.203-2.535-.303-7.3-.911-10.95-5.065-3.448-3.647-4.462-10.94-4.563-11.75C1.014 59.463 0 51.157 0 42.85v-7.8c0-8.409.913-16.614.913-16.918v-.101c.1-.81 1.216-8.003 4.562-11.751 4.056-4.458 8.618-4.964 10.85-5.167.202 0 .405 0 .506-.101h.101C30.418 0 50.696 0 50.9 0h.1c.203 0 20.481 0 33.966 1.013h.102c.202 0 .304 0 .507.101 2.23.203 6.793.71 10.849 5.167 3.447 3.647 4.461 10.94 4.562 11.75 0 .305 1.014 8.611 1.014 17.02v7.8c0 8.408-.913 16.613-1.014 16.917v.102c-.101.81-1.217 8.104-4.563 11.75-4.055 4.458-8.618 4.964-10.849 5.167-.202 0-.405 0-.506.101h-.102c-13.485.912-33.865.912-34.067.912zm-32.344-6.483c7.604.709 31.634 1.013 32.445 1.013.71 0 20.38 0 33.46-1.013.202 0 .405 0 .608-.102 1.825-.202 4.664-.506 7.3-3.343 1.825-2.026 2.94-6.99 3.143-8.712.101-.506.913-8.509.913-16.31v-7.8c0-7.901-.913-15.803-1.015-16.31-.304-2.43-1.419-6.888-3.143-8.61-2.636-2.938-5.475-3.14-7.3-3.343-.203 0-.405 0-.608-.101C71.076 5.673 51.1 5.673 50.898 5.673h-.1c-.204 0-20.28 0-33.46 1.013-.203 0-.406 0-.608.101-1.825.203-4.664.507-7.3 3.343-1.826 2.026-2.94 6.99-3.144 8.712-.101.608-.912 8.51-.912 16.31v7.8c0 7.8.912 15.803.912 16.31.304 2.431 1.42 6.888 3.143 8.61 2.332 2.634 5.374 3.04 7.605 3.343.608-.1 1.014 0 1.52.102z" fill="#fff"/><path d="M38.834 20.767v36.165L69.049 38.9 38.834 20.767z" fill="#fff"/></svg>
